!!!COM: Byrd, William
!!!CDT: ~1540///-1623/07/04/
!!!OTL: Ave verum corpus
**kern	**kern	**kern	**kern
*staff4	*staff3	*staff2	*staff1
*Ivox	*Ivox	*Ivox	*Ivox
*clefF4	*clefGv2	*clefGv2	*clefG2
*k[]	*k[]	*k[]	*k[]
*M4/4	*M4/4	*M4/4	*M4/4
*MM120	*MM120	*MM120	*MM120
=1-	=1-	=1-	=1-
1A	1c	1e	1a
=2	=2	=2	=2
2E\	1B	2e\	2g#/
[2G\	.	[2d\	[2b\
=3	=3	=3	=3
4G\]	2.d\	4d\]	4b\]
4F\	.	4d\	4a/
2E\	.	[2e\	4g#/
.	4c\	.	4a/
=4	=4	=4	=4
2E\	2B\	2e\]	8a/L
.	.	.	16g#/L
.	.	.	16f#/JJ
.	.	.	4g#/
2A\	2c#\	2e\	2a/
=5	=5	=5	=5
2G\	2d\	2g\	2b\
4C/	2e\	2g\	2cc\
[4d\	.	.	.
=6	=6	=6	=6
4d\]	4G/	4g\	4dd\
4B\	4G/	4g\	4dd\
4c\	2c\	[2g\	[2ee\
4C/	.	.	.
=7	=7	=7	=7
4.G\	4c\	4g\]	4ee\]
.	4B\	4g\	4dd\
16F\LL	.	.	.
16G\JJ	.	.	.
4A\	4.A/	4.e\	4.cc\
4AA/	.	.	.
.	8A/	8e\	8cc\
=8	=8	=8	=8
2E\	2G#/	2e\	2b\
4r	4r	4r	4r
[4F\	8A/L	[4c\	[4a/
.	8B/J	.	.
=9	=9	=9	=9
4F\]	4c\	4c\]	4a/]
4E\	4G/	4c\	4g/
2F\	2A/	2c\	2f/
=10	=10	=10	=10
2.C/	2G/	2c\	2e/
.	2c\	2e\	4r
[4E\	.	.	[4g/
=11	=11	=11	=11
4E\]	4B\	4e\	4g/]
4D\	2d\	4f#\	4a/
2G\	.	[2g\	2b\
.	4G/	.	.
=12	=12	=12	=12
2GG/	4r	2g\]	2b\
.	4d\	.	.
4r	[2f\	2d\	4r
4D\	.	.	4a/
=13	=13	=13	=13
2A\	4f\]	4r	2cc\
.	2e\	4c\	.
[2G\	.	4.g\	2b\
.	4d\	.	.
.	.	8g\	.
=14	=14	=14	=14
4G\]	4.g\	4d\	4b\
4C/	.	2e\	4cc\
.	8G/	.	.
4.F\	4A/	.	4.a/
.	4A/	4d\	.
8F\	.	.	8a/
=15	=15	=15	=15
2E\	2B\	2e\	2g#/
4r	4r	4r	4r
[4D\	(4B\	[4f#\	[4a/
=16	=16	=16	=16
4D\]	4d\)	4f#\]	4a/]
4D\	4d\	4f#\	4a/
2G\	2d\	2g\	2b\
=17	=17	=17	=17
4D\	4d\	4f#\	4a/
2C/	2e\	2g\	[4cc\
.	.	.	8cc\L]
.	.	.	8b\J
4D\	4d\	4f#\	[4b\
=18	=18	=18	=18
4E\	2c\	4g\	4b\]
4F#\	.	8f#\L	4a/
.	.	8e\J	.
2G\	2B\	4d\	2b\
.	.	[4g\	.
=19	=19	=19	=19
2r	1r	4g\]	2dd\
.	.	4f\	.
4r	.	2e\	4cc\
[4G\	.	.	[4b\
=20	=20	=20	=20
4G\]	4r	2d\	4b\]
4F\	2d\	.	4a/
[2E\	.	4.e\	4.g/
.	4c\	.	.
.	.	8e\	8g/
=21	=21	=21	=21
4E\]	8.B/L	2e\	4g/
.	16G/Jk	.	.
4C/	2c\	.	2g/
4.G\	.	4.d\	.
.	4B\	.	4g/
8G\	.	8d\	.
=22	=22	=22	=22
2C/	2c\	2e\	2g/
4r	4r	4r	4r
[4F\	4c\	[4f\	[4a/
=23	=23	=23	=23
4F\]	4A/	4f\]	4a/]
4D\	2d\	4f\	4a/
2A\	.	2e\	2a/
.	4c#\	.	.
=24	=24	=24	=24
4D\	2d\	4f#\	4a/
2G\	.	2g\	2b\
.	4B\	.	.
4E\	4B\	4g\	4b\
=25	=25	=25	=25
2C/	2e\	2g\	2cc\
2G\	4d\	4g\	4b\
.	4d\	4g\	4b\
=26	=26	=26	=26
4r	2.f\	2a\	2.dd\
4D\	.	.	.
2A\	.	4a\	.
.	[4e\	4c\	[4cc\
=27	=27	=27	=27
4G\	4e\]	2g\	4cc\]
4G\	4d\	.	2b\
[2G\	4e\	4g\	.
.	8d\L	4g\	[4cc\
.	8c\J	.	.
=28	=28	=28	=28
4G\]	4d\	4.g\	4cc\]
4G\	4r	.	4b\
.	.	8f\	.
2C/	2c\	2e\	4cc\
.	.	.	4g/
=29	=29	=29	=29
4r	4r	4r	2cc\
4AA/	4c\	4e\	.
2D\	2d\	2f\	2a/
=30	=30	=30	=30
2AA/	2c#\	2e\	4r
.	.	.	4a/
4r	4r	4r	2cc\
4AA/	4A/	4e\	.
=31	=31	=31	=31
2E\	2G#/	2e\	2b\
4AA/	[2A/	2c#\	4r
4A\	.	.	4a/
=32	=32	=32	=32
2.c\	2A/]	4r	2.ee\
.	.	4c\	.
.	2r	2g\	.
4B\	.	.	[4dd\
=33	=33	=33	=33
2A\	4r	4f\	4dd\]
.	4c\	2e\	2cc\
2G\	4.g\	.	.
.	.	4d\	8b/L
.	8f\	.	8a/J
=34	=34	=34	=34
2G\	4e\	4r	4b\
.	4d\	4G/	4b\
4.A\	4f\	[2c\	4.cc\
.	[4e\	.	.
8G\	.	.	8b\
=35	=35	=35	=35
2F\	4e\]	4c\]	2a/
.	4d\	8B/L	.
.	.	8A/J	.
2E\	2e\	2B\	2g#/
=36	=36	=36	=36
1r	4.A/	4.c\	1r
.	8c\	8e\	.
.	4B\	4d\	.
.	4A/	4c\	.
=37	=37	=37	=37
4.E\	2G#/	2B\	2r
8G\	.	.	.
4.F\	2A/	2c\	4.a/
8E\	.	.	8cc\
=38	=38	=38	=38
2D\	2r	4.d\	4b\
.	.	.	4a/
.	.	8f\	.
2E\	4.B\	4e\	2g#/
.	.	4B\	.
.	8d\	.	.
=39	=39	=39	=39
4AA/	4c\	4.e\	4a/
4E\	[4B\	.	4r
.	.	8g\	.
4D\	8B/L]	4f\	2r
.	8A/J	.	.
4C/	[4A/	4e\	.
=40	=40	=40	=40
2BB/	4A/]	4d\	4.b\
.	4G#/	4B\	.
.	.	.	8dd\
4AA/	4A/	4.e\	4cc\
[4E\	[4G#/	.	4b\
.	.	8d\	.
=41	=41	=41	=41
8E\L]	4G#/]	4B\	4b\
8G\J	.	.	.
4F\	4A/	8c\L	4a/
.	.	8d\J	.
4E\	4.B\	4e\	4g#/
4D\	.	4f\	[4b\
.	8d\	.	.
=42	=42	=42	=42
4E\	4c\	4e\	8b/L]
.	.	.	8a/J
4F\	8B/L	4d\	2a/
.	8A/J	.	.
2E\	2B\	2e\	.
.	.	.	4g#/
=43	=43	=43	=43
1AA	1A	1c#	2a/
.	.	.	4r
.	.	.	4e/
=44	=44	=44	=44
4r	4r	4r	2cc\
4AA/	4c\	4e\	.
2D\	2d\	2f\	2a/
=45	=45	=45	=45
2AA/	2c#\	2e\	4r
.	.	.	4a/
4r	4r	4r	2cc\
4AA/	4A/	4e\	.
=46	=46	=46	=46
2E\	2G#/	2e\	2b\
4AA/	[2A/	2c#\	4r
4A\	.	.	4a/
=47	=47	=47	=47
2.c\	2A/]	4r	2.ee\
.	.	4c\	.
.	2r	2g\	.
4B\	.	.	[4dd\
=48	=48	=48	=48
2A\	4r	4f\	4dd\]
.	4c\	2e\	2cc\
2G\	4.g\	.	.
.	.	4d\	8b/L
.	8f\	.	8a/J
=49	=49	=49	=49
2G\	4e\	4r	4b\
.	4d\	4G/	4b\
4.A\	4f\	[2c\	4.cc\
.	[4e\	.	.
8G\	.	.	8b\
=50	=50	=50	=50
2F\	4e\]	4c\]	2a/
.	4d\	8B/L	.
.	.	8A/J	.
2E\	2f\	2B\	2g#/
=51	=51	=51	=51
1r	4.A/	4.c\	1r
.	8c\	8e\	.
.	4B\	4d\	.
.	4A/	4c\	.
=52	=52	=52	=52
4.E\	2G#/	2B\	2r
8G\	.	.	.
4.F\	2A/	2c\	4.a/
8E\	.	.	8cc\
=53	=53	=53	=53
2D\	2r	4.d\	4b\
.	.	.	4a/
.	.	8f\	.
2E\	4.B\	4e\	2g#/
.	.	4B\	.
.	8c\	.	.
=54	=54	=54	=54
4AA/	4c\	4.e\	4a/
4E\	[4B\	.	4r
.	.	8g\	.
4D\	8B\L]	4f\	2r
.	8A\J	.	.
4C/	4A/	4e\	.
=55	=55	=55	=55
2BB/	4A/	4d\	4.b\
.	4G#/	4B''\	.
.	.	.	8dd\
4AA/	4A/	4.e\	4cc\
[4E\	[4G#/	.	4b\
.	.	8d\	.
=56	=56	=56	=56
8E\L]	4G#/]	4B\	4b\
8G\J	.	.	.
4F\	4A/	8c\L	4a/
.	.	8d\J	.
4E\	4.B\	4e\	4g#/
4D\	.	4f\	[4b\
.	8d\	.	.
=57	=57	=57	=57
4E\	4c\	4e\	8b/L]
.	.	.	8a/J
4F\	8B/L	4d\	2a/
.	8A/J	.	.
2E\	2B\	2e\	.
.	.	.	4g#/
=58	=58	=58	=58
2AA/	2A/	2c#\	1a
4.D\	[2f\	[2d\	.
8E\	.	.	.
=59	=59	=59	=59
8F\L	4f\]	4d\]	1a
8G\J	.	.	.
4A\	[4e\	4c\	.
4F\	8e\L]	[2f\	.
.	8d\J	.	.
4D\	[4d\	.	.
=60	=60	=60	=60
1A;	4d\]	4f\]	1a;
.	8c#\L	8e\L	.
.	8B\J	8d\J	.
.	2c#;\	2e;\	.
==	==	==	==
*-	*-	*-	*-
!!!ENC: Craig Stuart Sapp
!!!END: 2004/11/28/
